X: 27175
T: Miss Monaghan
R: reel
M: 4/4
K: Dmajor
|:B|Addc d2fd|ABBA BAAB|d2dB ABdf|afde fee2|
Addc d2fd|ABBA BAAB|d2dB ABdf|afeg fdd:|
|:e|fa~a2 afdf|gefd edBc|d2dB ABdf|afde fee2|
[1 fa~a2 afdf|gefd edBc|d2dB ABdf|afeg fdd:|
[2 Addc d2fd|ABBA BAAB|d2dB ABdf|afeg fdd||

